X: 32594
T: Planxty Nancy McDermott
R: reel
M: 4/4
K: Adorian
EG|:A2 AB c2 BA|c2 e2 edcB|c2 Bc dcBA|G2 E2 G2 AB|
$ c2 e2 d2 g2|e2 a2 agee|dcBA cBAG|1 E2 A2 A2 EG:|2 E2 A2 A4||
|:$ e2 a2 a3 e|agab a3 e|d2 ef g3 d|gfga g2 ed|$ %14
e2 a2 a3 e|agab a3 e|edcB dcBA|G2 E2 E4:|
|:$ c2 e2 cdef|g4 g4|c'2 bc' d'c'ba|g6 a2|$ %22
gage e2 g2|d2 g2 c2 g2|B2 e2 dcBd|1 c2 A2 A4:|2 c2 A2 A2 EG||%27

